X:1
T:Let the Christ That Is Living Reign Over All
T:Let the Christ That Is Living Reign Over All
T:Carl Fowler Price
T:Anita Brockway Ferris, 1921
C:Carl Fowler Price
%%score ( 1 2 ) ( 3 4 )
L:1/8
M:4/4
K:C
V:1 treble 
V:2 treble 
V:3 bass 
V:4 bass 
V:1
 [EG]2 | [EG]4 [CE]2 [CG]2 | [CA]4 [EA]2 [EA]2 | [FA]4 [CF]2 [FA]2 | [Fc]6 [Dc]2 | %5
w: 1.~In|lands where the|An- des rise|crowned to the|sun, In|
w: 2.~Where|strug- gle in|birth throes a|new race of|men— The|
w: 3.~Not|Christ on the|cross with His|head bowed in|death, But|
w: 4.~Whose|grace in man’s|weak- ness is|strong to pre-|vail, Whose|
 [Ec]4 [^DB]2 [DA]2 | [EG]4 [CE]2 [CG]2 | A4 [B,G]2 [DF]2 | [CE]6 E2 | [E^G]4 [B,^F]2 [B,E]2 | %10
w: lands where the|ri- vers flow|might- y and|strong, Where|Ant- arc- tic|
w: sons of the|In- cas, the|sons of old|Spain— Thro’|dark- ness and|
w: Christ Who in|tri- umph a-|rose from the|grave; The|Christ Who is|
w: love to the|fall- en brings|new hope of|life, To|th’arm bat- tling|
 [EA]4 [E^G]2 [EA]2 | [EB]4 [DE]2 [EB]2 | [Ec]6 [Gc]2 | [^Fc]4 [Fd]2 [Fe]2 | [Gd]4 [^CG]2 [CA]2 | %15
w: waves beat an|un- con- quered|song, And|for- ests un-|trod- den stand|
w: er- ror, thro’|striv- ing and|pain, May|an- gels of|right- eous- ness|
w: pre- sent thro’|all time to|save; The|Christ Who de-|liv- ers from|
w: e- vil lends|strength for the|strife, Whose|hand guides the|nat- ions what-|
 B4 [Ec]2 [^FA]2 | G6 ||"^Refrain" GG | [Ge]4 [Gd]2 [Ge]2 | [Ec]4 [CG]4 | [FA]4 [DG]2 [DF]2 | %21
w: vir- gin and|tall.|||||
w: sound forth the|call,|Let the|Christ that is|liv- ing|reign o- ver|
w: death’s gloom- y|pall.|||||
w: ev- er be-|fall.|||||
 [CE]4 G2 G2 | [Ge]4 [Ad]2 [^Ge]2 | [Ec]4 [CG]4 | (A2 c2) !fermata![Fd]3 [Fc] | [Ec]6 |] %26
w: |||||
w: all! Let the|Christ that is|liv- ing|reign * o- ver|all!|
w: |||||
w: |||||
V:2
 x2 | x8 | x8 | x8 | x8 | x8 | x8 | (C2 D2) x4 | x6 E2 | x8 | x8 | x8 | x8 | x8 | x8 | (D2 G2) x4 | %16
 G6 || GG | x8 | x8 | x8 | x4 G2 G2 | x8 | x8 | F4 x4 | x6 |] %26
V:3
 [C,G,]2 | [C,C]4 [C,G,]2 [B,,E,]2 | (E,2 A,2) [A,C]2 [G,C]2 | [F,C]4 [F,A,]2 [E,A,]2 | %4
 [D,A,]6 [F,A,]2 | (G,2 C2) [^F,C]2 [F,C]2 | [G,C]4 G,2 [E,G,]2 | [D,F,]4 [G,,D,]2 [B,,G,]2 | %8
 [C,G,]6 E,2 | [D,B,]4 [D,A,]2 [D,^G,]2 | [C,A,]4 [D,B,]2 [C,A,]2 | [B,,^G,]4 [E,G,]2 [G,D]2 | %12
 [A,C]6 [A,E]2 | (E2 A,2) [D,D]2 [D,C]2 | [G,B,]4 [E,B,]2 [E,G,]2 | (G,2 B,2) [D,A,]2 [D,C]2 | %16
 [G,B,]6 || G,G, | C4 [G,B,]2 [E,B,]2 | [A,C]4 (C2 B,2) | ([F,A,]2 [D,D]2) [G,B,]2 [B,,G,]2 | %21
 [C,G,]4 G,2 G,2 | C4 [F,B,]2 [E,B,]2 | [A,C]4 (C2 _B,2) | A,4 !fermata![G,B,]3 G, | [C,G,C]6 |] %26
V:4
 x2 | x8 | A,,4 x4 | x8 | x8 | G,4 x4 | x4 G,2 x2 | x8 | x6 E,2 | x8 | x8 | x8 | x8 | D,4 x4 | x8 | %15
 D,4 x4 | x6 || G,G, | (C,2 E,2) x4 | x4 E,4 | x8 | x4 G,2 G,2 | (C,2 E,2) x4 | x4 E,4 | %24
 (F,2 D,2) x G, x2 | x6 |] %26

